X: 110
T:Miss Brady
M:C
L:1/8
R:Reel
K:Em
D|||"Em"EFGA BABc|"D"dD (3DDD ADFD|"Em"EFGA BAGF|"Em"GB"D"AF "Em"GE "Em"
E2:||!
"Em"efge "D"fgaf|"Em"efge "D"fddf|"Em"gfed (3efg fe|"Em"dB"D"AF "Em"GE E
2:||
% <A name="D1X111">
